X:1
T:Valse Op.69 No.2
T:Valse Version autographe
T:Op. 69., No. 2. Brown-Index 35 1829
T:Frédéric Chopin (1810-1849)
T:Public Domain
T:Public Domain
T:Public Domain
C:Frédéric Chopin
C:(1810-1849)
Z:Public Domain
%%score { 1 | ( 2 3 ) }
L:1/8
M:3/4
K:D
V:1 treble nm="Piano"
V:2 bass 
V:3 bass 
V:1
 !>!f2 |: (fgfcdB) | ^A4 (!>!f2- | fgfced) | B4 f2- | f(g^efbd' | d'2) ^e2 !>!d'2- | %7
 d'2 (=e2 c'2-) | c'(b^agfc) | dgfcdB | ^A4 f2- | fgfced | B4 f2 |{/f} (f'c'd'^abf | =a)gB=c^de | %15
 gfBdcF |1 B^EF^ABd :|2 B2 z FB_B || _B3 (Ace | g3 fcd) | (f3 eBc) | (e3 dcB) | (B3 Ace | g3 fcd) | %24
 (f3 eBc) | (^A3 c!>!Gc) | (F3 ^Ace | g3 f!>(!cd) | (f3!>)! e!>(!Bc) | (e3!>)! dcB) | %30
 (B3!<(! Ace!<)! |!>(! g3 fc!>)!d | f3) (.e.f'.e' | .d'.c'.=c'.b._b.a | .^g.=g.f.c.d.B) | %35
 !>!^A2 z2 (!>!=a2 | ^g=gfced) | B2 z2 (!>!a2 | ^g=g^efbd' | d'2) ^e2 !>!d'2- | d'2 (=e2 c'2- | %41
 c')(b^agfc) | dgfcdB | ^A4 f2- | fgfced | B4 f2 |{/f} (f'c'd'^abf | =a)gB=c^de | gfBdcF | B2 z2 || %50
[K:B]"^Trio" (F2 | dedcde | !>!g4) f2 | (dedcde | !>!g4) f2 | f2 (d'>d' d'2) | c'2 (e>e e2) | %57
 d2 (b>b b2) | a2 (c>c e2) | (dedcde | !>!g4) f2 | (dedcde | !>!g4) f2 | d2 b>b b2 | a2 c>c c2 | %65
 B2 g>g g2 | f2 A>A e2 | (dedcde | !>!g4) f2 | (dedcde | !>!g4) f2 | (f2 d'>d') d'2 | %72
 c'2 (e>e e2) | d2 (b>b b2) | a2 (c>c e2) | (dedcde | !>!=g4) f2 | (=dedcde | !>!=g4 f2) | %79
!>(! (f2 e>(e!>)! =d2) | (!>!=d2 c>)c B2 | A2 c2) z2 | z2 F2!D.C.! || %83
V:2
 z2 |: B,,2 [F,B,D]2 [F,B,D]2 | C,2 [F,CE]2 [F,CE]2 | ^A,,2 [F,CE]2 [F,CE]2 | %4
 B,,2 [F,B,D]2 [F,B,D]2 | B,,2 [F,B,D]2 [F,B,D]2 | B,,2 [^G,B,D]2 [G,B,D]2 | %7
 B,,2 [=G,B,E]2 [G,B,E]2 | B,,2 [F,^A,CE]2 [F,A,CE]2 | B,,2 [F,B,D]2 [F,B,D]2 | %10
 C,2 [F,CE]2 [F,CE]2 | F,,2 [F,^A,E]2 [F,A,E]2 | B,,2 [F,B,D]2 [F,B,D]2 | D,2 [F,B,D]2 [F,B,D]2 | %14
 E,2 [G,=C]2 z2 | F,2 [B,D]2 [^A,E]2 |1 [B,D]2 B,,2 z2 :|2 B,,2 [F,D] z D,2 || %18
 C,2 [A,EG]2 [A,EG]2 | D,2 [A,DF]2 [A,DF]2 | A,,2 [A,CG]2 [A,CG]2 | D,2 [A,DF]2 [A,DF]2 | %22
 C,2 [A,EG]2 [A,EG]2 | D,2 [A,DF]2 z2 | G,,2 [G,B,E]2 [G,B,E]2 | F,,2 [F,CE]2 [F,B,E]2 | %26
 F,,2 [F,CE]2 [F,^A,E]2 | B,,2 [F,B,D]2 [F,B,D]2 | A,,2 [A,CG]2 [A,CG]2 | D,2 [A,DF]2 [A,DF]2 | %30
 C,2 [A,EG]2 [A,EG]2 | D,2 [A,DF]2 z2 | G,,2 [G,B,E]2 z2 | F,,2 [F,^CE]2 (^A,,2 | %34
 B,,2) [F,B,D]2 [F,B,D]2 | C,2 [F,CE]2 [F,CE]2 | F,,2 [F,^A,E]2 [F,A,E]2 | B,,2 [F,B,D]2 [F,B,D]2 | %38
 B,,2 [F,B,D]2 [F,B,D]2 | B,,2 [^G,B,D]2 [G,B,D]2 | B,,2 [=G,B,E]2 [G,B,E]2 | %41
 B,,2 [F,^A,CE]2 [F,A,CE]2 | B,,2 [F,B,D]2 [F,B,D]2 | C,2 [F,CE]2 [F,CE]2 | %44
 F,,2 [F,^A,E]2 [F,A,E]2 | B,,2 [F,B,D]2 [F,B,D]2 | D,2 [F,B,D]2 [F,B,D]2 | E,2 [G,=C]2 z2 | %48
 F,2 [B,D]2 [^A,E]2 | B,,2 [F,D] z ||[K:B] z2 | B,,2 [F,D]2 [F,D]2 | A,,2 [F,CE]2 [F,CE]2 | %53
 B,,2 [F,D]2 [F,D]2 | A,,2 [F,CE]2 [F,CE]2 | B,,2 [F,D]2 [F,D]2 | F,,2 [F,A,CE]2 [F,A,CE]2 | %57
 B,,2 [F,D]2 [F,D]2 | F,,2 [F,A,E]2 [F,A,E]2 | B,,2 [F,B,D]2 [F,B,D]2 | A,,2 [F,CE]2 [F,CE]2 | %61
 B,,2 [F,B,D]2 [F,B,D]2 | A,,2 [F,CE]2 [F,CE]2 | B,,2 [F,B,D]2 [F,B,D]2 | C,2 [A,CF]2 [A,CF]2 | %65
 C,2 [G,C^E]2 [G,CE]2 | F,,2 [F,CF]2 [F,C]2 | B,,2 [F,B,D]2 [F,B,D]2 | A,,2 [F,CE]2 [F,CE]2 | %69
 B,,2 [F,B,D]2 [F,B,D]2 | A,,2 [F,CE]2 [F,CE]2 | B,,2 [F,B,D]2 [F,B,D]2 | F,,2 [F,A,E]2 [F,A,E]2 | %73
 B,,2 [F,B,D]2 [F,B,D]2 | F,,2 [F,A,CE]2 [F,A,CE]2 | B,,2 [F,B,D]2 [F,B,D]2 | %76
 A,,2 [F,CE]2 [F,CE]2 | B,,2 [F,B,=D]2 [F,B,D]2 | A,,2 [F,CE]2 [F,CE]2 | B,,2 [F,B,=D]2 [F,B,D]2 | %80
 G,,2 [^E,B,]2 [C,E,B,]2 | F,,2 [C,F,A,]2 [C,F,A,]2 | (F,,2 [C,A,]2) || %83
V:3
 x2 |: x6 | x6 | x6 | x6 | x6 | x6 | x6 | x6 | x6 | x6 | x6 | x6 | x6 | x6 | F,4 z2 |1 x6 :|2 x6 || %18
 x6 | x6 | x6 | x6 | x6 | x6 | x6 | x6 | x6 | x6 | x6 | x6 | x6 | x6 | x6 | x6 | x6 | x6 | x6 | %37
 x6 | x6 | x6 | x6 | x6 | x6 | x6 | x6 | x6 | x6 | x6 | F,4 z2 | x4 ||[K:B] x2 | x6 | x6 | x6 | %54
 x6 | x6 | x6 | x6 | x6 | x6 | x6 | x6 | x6 | x6 | x6 | x6 | x6 | x6 | x6 | x6 | x6 | x6 | x6 | %73
 x6 | x6 | x6 | x6 | x6 | x6 | x6 | x6 | x6 | x4 || %83

